X:12
T:Stella splendens
C:Livre Vermeil de Montserrat (XIVème siècle)
R:Livre
Z:Transcrit et/ou corrigé par B@D - 2005-03-27
Z:Pour toute observation mailto:-@-
M:2/2
%%continueall 1
L:1/4
Q:1/4=110
K:C
V:1
AA/G/ AF| DF G2|_B/A/F/G/ ED|FG G/F/ D|C4|AA/G/ AF| DF G2|_B/A/F/G/ ED|FG G/F/ D/E/4C/4|D2 zD|
w:Stel-__la splen-dens in mon-____te ut so-lis ra-_di-um Mi-__ra-cu-lis ser-ra-____to ex-au-di po-_pu-__lum  Prin-
DA Bd|Bc/A/ GB|cA G/F/F/E/|D2 zD|DA Bd|Bc/A/ GB|cA G/F/F/E/|D2 z2||
w:ci-pes et ma-gna-__ tes ex-stir-pe re-_gi-_a sae-cu-li po-tes-ta-__tes ob-ten-ta ve-_ni-_a  
AA/G/ AF| DF G2|_B/A/F/G/ ED|FG G/F/ D|C4|AA/G/ AF| DF G2|_B/A/F/G/ ED|FG G/F/ D/E/4C/4|D4|]
w:Pe-__cca mi num pro-cla-____mant tu den tes pec-_to-ra Po-__pli te fle-xo cla-____mant hic A-ve Ma-_ri-__a
V:2
D2 DF|AD C2|F2 GA|DC GA|c4|   D2 DF|AD C2|F2 GA|DC FG|A2 zA-|
A D2 D|GF E2|CD FG|A2 zA-|A D2 D|GF E2|CD FG|A2 z2|
D2 DF|AD C2|F2 GA|DC GA|c4|   D2 DF|AD C2|F2 GA|DC FG|A4|]




%%header "$P0	 $IR 	$P1"
%%footer $D - Éditions Galouvielle - 2009 - À usage librement privé dans le cadre familial

